src/assets/education.svg

<svg fill="none" height="236" viewBox="0 0 236 236" width="236" xmlns="http://www.w3.org/2000/svg"><path d="m118 118.126v-117.632104c64.97 0 117.63 52.665004 117.63 117.632104 0 24.841-7.86 49.045-22.46 69.142z" fill="#ad1c3f"/><path d="m118.01 118.122 95.17 69.143c-37.18 51.163-108.15 63.779-160.68 28.562z" fill="#fde3df"/><path d="m118 118.122-65.5002 97.705c-28.27-18.948-46.94-49.205-51.2-82.961z" fill="#e6bfce"/><path d="m118 118.128-116.71024 14.743c-3.3-26.151 2.27002-52.654 15.84004-75.257z" fill="#cf9bbd"/><path d="m118 118.129-100.8701-60.5149c4.82-8.038 10.58-15.47 17.17-22.139z" fill="#b977ac"/><path d="m118 118.126-83.7002-82.655c6.59-6.669 13.9499-12.527 21.9199-17.45z" fill="#a2539b"/><path d="m118 118.137-61.7803-100.1041c7.98-4.923 16.5101-8.87396 25.4301-11.76996z" fill="#8b2f8a"/><path d="m118 118.122-36.3496-111.87502c5.86-1.904 11.8699-3.34499 17.9499-4.30899z" fill="#d770a1"/><path d="m118 118.126-18.4004-116.18411c6.0804-.963995 12.2404-1.447994 18.4004-1.447994z" fill="#e496b6"/></svg>

<svg width="236" height="236" viewBox="0 0 236 236" fill="none" xmlns="http://www.w3.org/2000/svg">
<path d="M118 118.126V0.493896C182.97 0.493896 235.63 53.1589 235.63 118.126C235.63 142.967 227.77 167.171 213.17 187.268L118 118.126Z" fill="#AD1C3F"/>
<path d="M118.01 118.122L213.18 187.265C176 238.428 105.03 251.044 52.5 215.827L118.01 118.122Z" fill="#FDE3DF"/>
<path d="M118 118.122L52.4998 215.827C24.2298 196.879 5.5598 166.622 1.2998 132.866L118 118.122Z" fill="#E6BFCE"/>
<path d="M118 118.128L1.28976 132.871C-2.01024 106.72 3.55978 80.217 17.1298 57.614L118 118.128Z" fill="#CF9BBD"/>
<path d="M118 118.129L17.1299 57.6141C21.9499 49.5761 27.7099 42.1441 34.2999 35.4751L118 118.129Z" fill="#B977AC"/>
<path d="M118 118.126L34.2998 35.471C40.8898 28.802 48.2497 22.944 56.2197 18.021L118 118.126Z" fill="#A2539B"/>
<path d="M118 118.137L56.2197 18.0329C64.1997 13.1099 72.7298 9.15894 81.6498 6.26294L118 118.137Z" fill="#8B2F8A"/>
<path d="M118 118.122L81.6504 6.24698C87.5104 4.34298 93.5203 2.90199 99.6003 1.93799L118 118.122Z" fill="#D770A1"/>
<path d="M118 118.126L99.5996 1.94189C105.68 0.977895 111.84 0.493896 118 0.493896V118.126Z" fill="#E496B6"/>
</svg>
